assets/1. P-Z/Two-thirty/Color/Two-thirty-color.svg

<svg width="100%" height="100%" viewBox="0 0 32 32" fill="none" xmlns="http://www.w3.org/2000/svg">
<circle cx="16" cy="16.0111" r="11.6875" fill="url(#paint0_radial_18_13519)"/>
<g filter="url(#filter0_f_18_13519)">
<path fill-rule="evenodd" clip-rule="evenodd" d="M20.9694 13.2778C21.2455 13.7561 21.0817 14.3676 20.6034 14.6438L16.9556 16.7498C16.9556 16.7536 16.9557 16.7574 16.9557 16.7612C16.9557 17.496 16.5571 18.1377 15.9644 18.4821V24.7566C15.9644 25.3089 15.5167 25.7566 14.9644 25.7566C14.4122 25.7566 13.9644 25.3089 13.9644 24.7566V18.4793C13.3744 18.1343 12.978 17.494 12.978 16.7612C12.978 15.6628 13.8684 14.7723 14.9668 14.7723C15.3205 14.7723 15.6527 14.8647 15.9404 15.0265L19.6034 12.9117C20.0817 12.6356 20.6932 12.7995 20.9694 13.2778Z" fill="#C4C0C7"/>
</g>
<g filter="url(#filter1_i_18_13519)">
<path fill-rule="evenodd" clip-rule="evenodd" d="M16.0288 15.0112C16.5811 15.0112 17.0288 15.4589 17.0288 16.0112V24.0066C17.0288 24.5589 16.5811 25.0066 16.0288 25.0066C15.4765 25.0066 15.0288 24.5589 15.0288 24.0066V16.0112C15.0288 15.4589 15.4765 15.0112 16.0288 15.0112Z" fill="url(#paint1_linear_18_13519)"/>
<path fill-rule="evenodd" clip-rule="evenodd" d="M16.0288 15.0112C16.5811 15.0112 17.0288 15.4589 17.0288 16.0112V24.0066C17.0288 24.5589 16.5811 25.0066 16.0288 25.0066C15.4765 25.0066 15.0288 24.5589 15.0288 24.0066V16.0112C15.0288 15.4589 15.4765 15.0112 16.0288 15.0112Z" fill="url(#paint2_radial_18_13519)"/>
</g>
<path fill-rule="evenodd" clip-rule="evenodd" d="M22.0338 12.5278C22.3099 13.0061 22.146 13.6177 21.6677 13.8938L16.5 16.8774C16.0217 17.1535 15.4101 16.9896 15.134 16.5114C14.8578 16.0331 15.0217 15.4215 15.5 15.1453L20.6677 12.1617C21.146 11.8856 21.7576 12.0495 22.0338 12.5278Z" fill="url(#paint3_linear_18_13519)"/>
<path fill-rule="evenodd" clip-rule="evenodd" d="M22.0338 12.5278C22.3099 13.0061 22.146 13.6177 21.6677 13.8938L16.5 16.8774C16.0217 17.1535 15.4101 16.9896 15.134 16.5114C14.8578 16.0331 15.0217 15.4215 15.5 15.1453L20.6677 12.1617C21.146 11.8856 21.7576 12.0495 22.0338 12.5278Z" fill="url(#paint4_linear_18_13519)"/>
<path fill-rule="evenodd" clip-rule="evenodd" d="M22.0338 12.5278C22.3099 13.0061 22.146 13.6177 21.6677 13.8938L16.5 16.8774C16.0217 17.1535 15.4101 16.9896 15.134 16.5114C14.8578 16.0331 15.0217 15.4215 15.5 15.1453L20.6677 12.1617C21.146 11.8856 21.7576 12.0495 22.0338 12.5278Z" fill="url(#paint5_radial_18_13519)"/>
<path fill-rule="evenodd" clip-rule="evenodd" d="M22.0338 12.5278C22.3099 13.0061 22.146 13.6177 21.6677 13.8938L16.5 16.8774C16.0217 17.1535 15.4101 16.9896 15.134 16.5114C14.8578 16.0331 15.0217 15.4215 15.5 15.1453L20.6677 12.1617C21.146 11.8856 21.7576 12.0495 22.0338 12.5278Z" fill="url(#paint6_linear_18_13519)"/>
<g filter="url(#filter2_ii_18_13519)">
<path fill-rule="evenodd" clip-rule="evenodd" d="M16 27C22.0751 27 27 22.0751 27 16C27 9.92487 22.0751 5 16 5C9.92487 5 5 9.92487 5 16C5 22.0751 9.92487 27 16 27ZM16 30C23.732 30 30 23.732 30 16C30 8.26801 23.732 2 16 2C8.26801 2 2 8.26801 2 16C2 23.732 8.26801 30 16 30Z" fill="url(#paint7_linear_18_13519)"/>
</g>
<path d="M18.02 16.0112C18.02 17.1096 17.1296 18 16.0312 18C14.9328 18 14.0424 17.1096 14.0424 16.0112C14.0424 14.9128 14.9328 14.0223 16.0312 14.0223C17.1296 14.0223 18.02 14.9128 18.02 16.0112Z" fill="url(#paint8_radial_18_13519)"/>
<path d="M18.02 16.0112C18.02 17.1096 17.1296 18 16.0312 18C14.9328 18 14.0424 17.1096 14.0424 16.0112C14.0424 14.9128 14.9328 14.0223 16.0312 14.0223C17.1296 14.0223 18.02 14.9128 18.02 16.0112Z" fill="url(#paint9_radial_18_13519)"/>
<defs>
<filter id="filter0_f_18_13519" x="11.478" y="11.2776" width="11.1255" height="15.979" filterUnits="userSpaceOnUse" color-interpolation-filters="sRGB">
<feFlood flood-opacity="0" result="BackgroundImageFix"/>
<feBlend mode="normal" in="SourceGraphic" in2="BackgroundImageFix" result="shape"/>
<feGaussianBlur stdDeviation="0.75" result="effect1_foregroundBlur_18_13519"/>
</filter>
<filter id="filter1_i_18_13519" x="15.0288" y="15.0112" width="2.6" height="9.99536" filterUnits="userSpaceOnUse" color-interpolation-filters="sRGB">
<feFlood flood-opacity="0" result="BackgroundImageFix"/>
<feBlend mode="normal" in="SourceGraphic" in2="BackgroundImageFix" result="shape"/>
<feColorMatrix in="SourceAlpha" type="matrix" values="0 0 0 0 0 0 0 0 0 0 0 0 0 0 0 0 0 0 127 0" result="hardAlpha"/>
<feOffset dx="0.6"/>
<feGaussianBlur stdDeviation="0.425"/>
<feComposite in2="hardAlpha" operator="arithmetic" k2="-1" k3="1"/>
<feColorMatrix type="matrix" values="0 0 0 0 0.635294 0 0 0 0 0.227451 0 0 0 0 0.403922 0 0 0 1 0"/>
<feBlend mode="normal" in2="shape" result="effect1_innerShadow_18_13519"/>
</filter>
<filter id="filter2_ii_18_13519" x="1.6" y="1.6" width="28.8" height="28.8" filterUnits="userSpaceOnUse" color-interpolation-filters="sRGB">
<feFlood flood-opacity="0" result="BackgroundImageFix"/>
<feBlend mode="normal" in="SourceGraphic" in2="BackgroundImageFix" result="shape"/>
<feColorMatrix in="SourceAlpha" type="matrix" values="0 0 0 0 0 0 0 0 0 0 0 0 0 0 0 0 0 0 127 0" result="hardAlpha"/>
<feOffset dx="0.4" dy="-0.4"/>
<feGaussianBlur stdDeviation="0.3"/>
<feComposite in2="hardAlpha" operator="arithmetic" k2="-1" k3="1"/>
<feColorMatrix type="matrix" values="0 0 0 0 0.282353 0 0 0 0 0.254902 0 0 0 0 0.313726 0 0 0 1 0"/>
<feBlend mode="normal" in2="shape" result="effect1_innerShadow_18_13519"/>
<feColorMatrix in="SourceAlpha" type="matrix" values="0 0 0 0 0 0 0 0 0 0 0 0 0 0 0 0 0 0 127 0" result="hardAlpha"/>
<feOffset dx="-0.4" dy="0.4"/>
<feGaussianBlur stdDeviation="0.3"/>
<feComposite in2="hardAlpha" operator="arithmetic" k2="-1" k3="1"/>
<feColorMatrix type="matrix" values="0 0 0 0 0.533333 0 0 0 0 0.533333 0 0 0 0 0.533333 0 0 0 1 0"/>
<feBlend mode="normal" in2="effect1_innerShadow_18_13519" result="effect2_innerShadow_18_13519"/>
</filter>
<radialGradient id="paint0_radial_18_13519" cx="0" cy="0" r="1" gradientUnits="userSpaceOnUse" gradientTransform="translate(10.6355 23.1056) rotate(-46.2124) scale(21.1181)">
<stop offset="0.598155" stop-color="#DDDADF"/>
<stop offset="1" stop-color="#BDBABF"/>
</radialGradient>
<linearGradient id="paint1_linear_18_13519" x1="16.0288" y1="15.0112" x2="16.0288" y2="25.0066" gradientUnits="userSpaceOnUse">
<stop stop-color="#F83F4C"/>
<stop offset="1" stop-color="#F74093"/>
</linearGradient>
<radialGradient id="paint2_radial_18_13519" cx="0" cy="0" r="1" gradientUnits="userSpaceOnUse" gradientTransform="translate(16.1875 17.7299) rotate(146.437) scale(1.95012 1.33455)">
<stop offset="0.293124" stop-color="#911A57"/>
<stop offset="1" stop-color="#911A57" stop-opacity="0"/>
</radialGradient>
<linearGradient id="paint3_linear_18_13519" x1="22.0338" y1="12.5278" x2="17.0009" y2="15.4335" gradientUnits="userSpaceOnUse">
<stop stop-color="#32183D"/>
<stop offset="1" stop-color="#2C3A65"/>
</linearGradient>
<linearGradient id="paint4_linear_18_13519" x1="18.9096" y1="13.1768" x2="19.4096" y2="14.0429" gradientUnits="userSpaceOnUse">
<stop stop-color="#2E2840"/>
<stop offset="1" stop-color="#2E2840" stop-opacity="0"/>
</linearGradient>
<radialGradient id="paint5_radial_18_13519" cx="0" cy="0" r="1" gradientUnits="userSpaceOnUse" gradientTransform="translate(21.9986 13.2517) rotate(150) scale(5.73026 0.815281)">
<stop stop-color="#50375F"/>
<stop offset="1" stop-color="#50375F" stop-opacity="0"/>
</radialGradient>
<linearGradient id="paint6_linear_18_13519" x1="22.0338" y1="12.5278" x2="21.4122" y2="12.8866" gradientUnits="userSpaceOnUse">
<stop stop-color="#3E1846"/>
<stop offset="1" stop-color="#3E1846" stop-opacity="0"/>
</linearGradient>
<linearGradient id="paint7_linear_18_13519" x1="24.5108" y1="4.01349" x2="4.28379" y2="28.5336" gradientUnits="userSpaceOnUse">
<stop stop-color="#6D6B70"/>
<stop offset="1" stop-color="#706C74"/>
</linearGradient>
<radialGradient id="paint8_radial_18_13519" cx="0" cy="0" r="1" gradientUnits="userSpaceOnUse" gradientTransform="translate(17.111 15.5527) rotate(134.039) scale(3.40442)">
<stop stop-color="#C9C6CC"/>
<stop offset="1" stop-color="#928E95"/>
</radialGradient>
<radialGradient id="paint9_radial_18_13519" cx="0" cy="0" r="1" gradientUnits="userSpaceOnUse" gradientTransform="translate(16.5937 15.5047) rotate(139.399) scale(2.88111)">
<stop offset="0.527069" stop-color="#776F7F" stop-opacity="0"/>
<stop offset="1" stop-color="#776F7F"/>
</radialGradient>
</defs>
</svg>

<svg width="100%" height="100%" viewBox="0 0 32 32" xmlns="http://www.w3.org/2000/svg"><circle cx="16" cy="16.011" r="11.688" fill="url(#a)"/><g filter="url(#b)"><path fill="#C4C0C7" fill-rule="evenodd" d="M20.97 13.278a1 1 0 0 1-.367 1.366l-3.647 2.106v.011c0 .735-.399 1.377-.992 1.721v6.275a1 1 0 1 1-2 0v-6.278a1.988 1.988 0 0 1 1.976-3.452l3.663-2.115a1 1 0 0 1 1.366.366" clip-rule="evenodd"/></g><g fill-rule="evenodd" clip-rule="evenodd" filter="url(#c)"><path fill="url(#d)" d="M16.029 15.011a1 1 0 0 1 1 1v7.996a1 1 0 1 1-2 0V16.01a1 1 0 0 1 1-1"/><path fill="url(#e)" d="M16.029 15.011a1 1 0 0 1 1 1v7.996a1 1 0 1 1-2 0V16.01a1 1 0 0 1 1-1"/></g><path fill="url(#f)" fill-rule="evenodd" d="M22.034 12.528a1 1 0 0 1-.366 1.366L16.5 16.877a1 1 0 0 1-1-1.732l5.168-2.983a1 1 0 0 1 1.366.366" clip-rule="evenodd"/><path fill="url(#g)" fill-rule="evenodd" d="M22.034 12.528a1 1 0 0 1-.366 1.366L16.5 16.877a1 1 0 0 1-1-1.732l5.168-2.983a1 1 0 0 1 1.366.366" clip-rule="evenodd"/><path fill="url(#h)" fill-rule="evenodd" d="M22.034 12.528a1 1 0 0 1-.366 1.366L16.5 16.877a1 1 0 0 1-1-1.732l5.168-2.983a1 1 0 0 1 1.366.366" clip-rule="evenodd"/><path fill="url(#i)" fill-rule="evenodd" d="M22.034 12.528a1 1 0 0 1-.366 1.366L16.5 16.877a1 1 0 0 1-1-1.732l5.168-2.983a1 1 0 0 1 1.366.366" clip-rule="evenodd"/><g filter="url(#j)"><path fill="url(#k)" fill-rule="evenodd" d="M16 27c6.075 0 11-4.925 11-11S22.075 5 16 5 5 9.925 5 16s4.925 11 11 11m0 3c7.732 0 14-6.268 14-14S23.732 2 16 2 2 8.268 2 16s6.268 14 14 14" clip-rule="evenodd"/></g><path fill="url(#l)" d="M18.02 16.011a1.989 1.989 0 1 1-3.978 0 1.989 1.989 0 0 1 3.978 0"/><path fill="url(#m)" d="M18.02 16.011a1.989 1.989 0 1 1-3.978 0 1.989 1.989 0 0 1 3.978 0"/><defs><radialGradient id="a" cx="0" cy="0" r="1" gradientTransform="rotate(-46.212 32.395 -.91)scale(21.1181)" gradientUnits="userSpaceOnUse"><stop offset=".598" stop-color="#DDDADF"/><stop offset="1" stop-color="#BDBABF"/></radialGradient><radialGradient id="e" cx="0" cy="0" r="1" gradientTransform="rotate(146.437 5.42 11.306)scale(1.95012 1.33455)" gradientUnits="userSpaceOnUse"><stop offset=".293" stop-color="#911A57"/><stop offset="1" stop-color="#911A57" stop-opacity="0"/></radialGradient><radialGradient id="h" cx="0" cy="0" r="1" gradientTransform="rotate(150 9.224 9.573)scale(5.73026 .81528)" gradientUnits="userSpaceOnUse"><stop stop-color="#50375F"/><stop offset="1" stop-color="#50375F" stop-opacity="0"/></radialGradient><radialGradient id="l" cx="0" cy="0" r="1" gradientTransform="rotate(134.039 5.258 11.405)scale(3.40442)" gradientUnits="userSpaceOnUse"><stop stop-color="#C9C6CC"/><stop offset="1" stop-color="#928E95"/></radialGradient><radialGradient id="m" cx="0" cy="0" r="1" gradientTransform="rotate(139.399 5.43 10.822)scale(2.88111)" gradientUnits="userSpaceOnUse"><stop offset=".527" stop-color="#776F7F" stop-opacity="0"/><stop offset="1" stop-color="#776F7F"/></radialGradient><linearGradient id="d" x1="16.029" x2="16.029" y1="15.011" y2="25.007" gradientUnits="userSpaceOnUse"><stop stop-color="#F83F4C"/><stop offset="1" stop-color="#F74093"/></linearGradient><linearGradient id="f" x1="22.034" x2="17.001" y1="12.528" y2="15.434" gradientUnits="userSpaceOnUse"><stop stop-color="#32183D"/><stop offset="1" stop-color="#2C3A65"/></linearGradient><linearGradient id="g" x1="18.91" x2="19.41" y1="13.177" y2="14.043" gradientUnits="userSpaceOnUse"><stop stop-color="#2E2840"/><stop offset="1" stop-color="#2E2840" stop-opacity="0"/></linearGradient><linearGradient id="i" x1="22.034" x2="21.412" y1="12.528" y2="12.887" gradientUnits="userSpaceOnUse"><stop stop-color="#3E1846"/><stop offset="1" stop-color="#3E1846" stop-opacity="0"/></linearGradient><linearGradient id="k" x1="24.511" x2="4.284" y1="4.013" y2="28.534" gradientUnits="userSpaceOnUse"><stop stop-color="#6D6B70"/><stop offset="1" stop-color="#706C74"/></linearGradient><filter id="b" width="11.126" height="15.979" x="11.478" y="11.278" color-interpolation-filters="sRGB" filterUnits="userSpaceOnUse"><feFlood flood-opacity="0" result="BackgroundImageFix"/><feBlend in="SourceGraphic" in2="BackgroundImageFix" result="shape"/><feGaussianBlur result="effect1_foregroundBlur_18_13519" stdDeviation=".75"/></filter><filter id="c" width="2.6" height="9.995" x="15.029" y="15.011" color-interpolation-filters="sRGB" filterUnits="userSpaceOnUse"><feFlood flood-opacity="0" result="BackgroundImageFix"/><feBlend in="SourceGraphic" in2="BackgroundImageFix" result="shape"/><feColorMatrix in="SourceAlpha" result="hardAlpha" values="0 0 0 0 0 0 0 0 0 0 0 0 0 0 0 0 0 0 127 0"/><feOffset dx=".6"/><feGaussianBlur stdDeviation=".425"/><feComposite in2="hardAlpha" k2="-1" k3="1" operator="arithmetic"/><feColorMatrix values="0 0 0 0 0.635294 0 0 0 0 0.227451 0 0 0 0 0.403922 0 0 0 1 0"/><feBlend in2="shape" result="effect1_innerShadow_18_13519"/></filter><filter id="j" width="28.8" height="28.8" x="1.6" y="1.6" color-interpolation-filters="sRGB" filterUnits="userSpaceOnUse"><feFlood flood-opacity="0" result="BackgroundImageFix"/><feBlend in="SourceGraphic" in2="BackgroundImageFix" result="shape"/><feColorMatrix in="SourceAlpha" result="hardAlpha" values="0 0 0 0 0 0 0 0 0 0 0 0 0 0 0 0 0 0 127 0"/><feOffset dx=".4" dy="-.4"/><feGaussianBlur stdDeviation=".3"/><feComposite in2="hardAlpha" k2="-1" k3="1" operator="arithmetic"/><feColorMatrix values="0 0 0 0 0.282353 0 0 0 0 0.254902 0 0 0 0 0.313726 0 0 0 1 0"/><feBlend in2="shape" result="effect1_innerShadow_18_13519"/><feColorMatrix in="SourceAlpha" result="hardAlpha" values="0 0 0 0 0 0 0 0 0 0 0 0 0 0 0 0 0 0 127 0"/><feOffset dx="-.4" dy=".4"/><feGaussianBlur stdDeviation=".3"/><feComposite in2="hardAlpha" k2="-1" k3="1" operator="arithmetic"/><feColorMatrix values="0 0 0 0 0.533333 0 0 0 0 0.533333 0 0 0 0 0.533333 0 0 0 1 0"/><feBlend in2="effect1_innerShadow_18_13519" result="effect2_innerShadow_18_13519"/></filter></defs></svg>
